X: 189
T: Old Beech Leaves
B: canberra pickers and fiddlers
B: old time tunes update
B: tunes
M:C|
L:1/8
R: Reel
Q: 1/4=100
K:G
V:1 
dde2 g2g2|gea>g ed3|ddef g2BB|eedB AG3|
GGBd g2g2|gea>g ed3|ddef ggff|eBdd B2G2||
D2{F}G2B3B|A-B (3ABB  AE2E|G2 Bc d>c B2|Bcdd BG3|
D>F-GG B3B|AAAB A3E|G2BB cdde|ddcB AD-G2||
% abcbook-tune_id 67a7d9ecc35417f2a84c7462
% abcbook-tune_composer_id 
% abcbook-link-0 https://www.youtube.com/watch?v=JKyR7BDkvIs
% abcbook-link-title-0 Old Beech Leaves
% abcbook-boost 0
% abcbook-difficulty 0
% abcbook-tags old time tunes
% abcbook-tablature 
% abcbook-transpose 
% abcbook-tuning GDAD
% abcbook-lastupdated 1739180692678
% abcbook-src-url 
% abcbook-soundfonts 
% abcbook-repeats 1


